frontend/src/assets/svg/decoration.svg

<svg viewBox="0 0 150 150" fill="none" xmlns="http://www.w3.org/2000/svg">
<path d="M119.797 13.3406C120.46 15.1529 127.824 36.7206 112.72 62.1541C103.546 77.6021 89.6163 78.6243 88.2522 78.6875C87.4533 77.5798 79.5892 66.0374 85.9779 49.2451C96.497 21.5979 117.965 13.9488 119.797 13.3406Z" fill="#80C56E"/>
<path d="M119.797 13.3406L88.2522 78.6875C89.6166 78.624 103.546 77.6021 112.72 62.1541C127.825 36.7206 120.46 15.1529 119.797 13.3406Z" fill="#66AD66"/>
<path d="M87.2773 80.7067L88.2521 78.6876C88.2315 78.6589 88.2052 78.6217 88.1753 78.5795C87.5724 79.9881 87.2773 80.7067 87.2773 80.7067Z" fill="white" stroke="black" stroke-width="15" stroke-miterlimit="10" stroke-linecap="round" stroke-linejoin="round"/>
<path d="M30.2033 13.3406C29.5403 15.1529 22.1756 36.7206 37.2799 62.1541C46.4542 77.6021 60.3837 78.6243 61.7478 78.6875C62.5467 77.5798 70.4109 66.0374 64.0218 49.2451C53.5031 21.5979 32.0346 13.9488 30.2033 13.3406Z" fill="#80C56E"/>
<path d="M64.0219 49.2451C53.5032 21.5979 32.0347 13.9488 30.2034 13.3406C48.8567 48.9685 58.9181 71.7896 61.8247 78.5794C62.9441 76.9792 70.2463 65.6044 64.0219 49.2451Z" fill="#66AD66"/>
<path d="M74.9999 0C72.7511 2.18232 46.7554 28.524 50.8898 76.3805C53.4008 105.448 73.0496 116.776 74.9999 117.832C76.9502 116.776 96.599 105.448 99.1101 76.3805C103.244 28.524 77.2488 2.18232 74.9999 0Z" fill="#80C56E"/>
<path d="M75 0V117.832C76.9503 116.776 96.5991 105.448 99.1102 76.3805C103.245 28.524 77.2488 2.18232 75 0Z" fill="#66AD66"/>
<path d="M130.654 73.2548C135.545 56.4446 133.89 40.8206 133.89 40.8206C133.89 40.8206 124.47 45.0165 100.799 60.3132C82.3992 72.2034 76.7062 93.0505 75 98.669H96.6249C112.344 98.669 126.262 88.3483 130.654 73.2548Z" fill="#80C56E"/>
<path d="M133.89 40.8202C133.89 40.8202 109.562 88.8797 75 98.6689H96.6249C112.344 98.6689 126.263 88.3482 130.654 73.2548C135.545 56.4445 133.89 40.8202 133.89 40.8202Z" fill="#66AD66"/>
<path d="M19.3459 73.2548C14.4548 56.4446 16.1104 40.8206 16.1104 40.8206C16.1104 40.8206 25.5296 45.0165 49.2009 60.3132C67.6008 72.2034 73.2938 93.0505 75 98.669H53.3751C37.6559 98.669 23.7375 88.3483 19.3459 73.2548Z" fill="#80C56E"/>
<path d="M75.0001 98.6689C73.2938 93.0504 67.6008 72.2033 49.2009 60.3129C25.5293 45.0161 16.1101 40.8202 16.1101 40.8202C16.1101 40.8202 40.4379 88.88 75.0001 98.6689Z" fill="#66AD66"/>
<path d="M90.6375 150H59.3624C51.067 150 43.9511 144.085 42.4344 135.93L35.7292 99.8733H114.271L107.566 135.93C106.049 144.085 98.9329 150 90.6375 150Z" fill="#FEC37D"/>
<path d="M99.0798 99.8736L92.3746 135.93C90.8579 144.085 83.7417 150 75.4463 150H90.6376C98.933 150 106.049 144.085 107.566 135.93L114.271 99.8733H99.0798V99.8736Z" fill="#F9AE5D"/>
<path d="M115.64 107.976H34.3599C31.0664 107.976 28.3962 105.306 28.3962 102.013C28.3962 98.7191 31.0664 96.049 34.3599 96.049H115.64C118.934 96.049 121.604 98.7191 121.604 102.013C121.604 105.306 118.934 107.976 115.64 107.976Z" fill="#F2A559"/>
<path d="M115.64 96.0487H106.085V107.976H115.64C118.934 107.976 121.604 105.306 121.604 102.012C121.604 98.7188 118.934 96.0487 115.64 96.0487Z" fill="#EA8F3D"/>
</svg>

<svg class="decoration" xmlns="http://www.w3.org/2000/svg" viewBox="0 0 150 150" style="enable-background:new 0 0 150 150;" xml:space="preserve">
<g class="top_right">
	<path fill="#80C56E" d="M119.8,13.3c0.7,1.8,8,23.4-7.1,48.8c-9.2,15.4-23.1,16.5-24.5,16.5C87.5,77.6,79.6,66,86,49.2
		C96.5,21.6,118,13.9,119.8,13.3z"/>
	<path fill="#66AD66" d="M119.8,13.3L88.3,78.7c1.4-0.1,15.3-1.1,24.5-16.5C127.8,36.7,120.5,15.2,119.8,13.3z"/>
</g>
<g class="top_left">
	<path fill="#80C56E" d="M30.2,13.3c-0.7,1.8-8,23.4,7.1,48.8c9.2,15.4,23.1,16.5,24.5,16.5c0.8-1.1,8.7-12.7,2.3-29.4
		C53.5,21.6,32,13.9,30.2,13.3z"/>
	<path fill="#66AD66" d="M64,49.2C53.5,21.6,32,13.9,30.2,13.3C48.9,49,58.9,71.8,61.8,78.6C62.9,77,70.2,65.6,64,49.2z"/>
</g>
<g id="center">
	<path fill="#80C56E" d="M75,0c-2.2,2.2-28.2,28.5-24.1,76.4c2.5,29.1,22.2,40.4,24.1,41.5c2-1.1,21.6-12.4,24.1-41.5
		C103.2,28.5,77.2,2.2,75,0z"/>
	<path fill="#66AD66" d="M75,0v117.8c2-1.1,21.6-12.4,24.1-41.5C103.2,28.5,77.2,2.2,75,0z"/>
</g>
<g class="bottom_right">
	<path fill="#80C56E" d="M130.7,73.3c4.9-16.8,3.2-32.4,3.2-32.4s-9.4,4.2-33.1,19.5C82.4,72.2,76.7,93.1,75,98.7h21.6
		C112.3,98.7,126.3,88.3,130.7,73.3z"/>
	<path fill="#66AD66" d="M133.9,40.8c0,0-24.3,48.1-58.9,57.8h21.6c15.7,0,29.6-10.3,34-25.4C135.5,56.4,133.9,40.8,133.9,40.8z"/>
</g>
<g class="bottom_left">
	<path fill="#80C56E" d="M19.3,73.3c-4.9-16.8-3.2-32.4-3.2-32.4s9.4,4.2,33.1,19.5C67.6,72.2,73.3,93.1,75,98.7H53.4
		C37.7,98.7,23.7,88.3,19.3,73.3z"/>
	<path fill="#66AD66" d="M75,98.7c-1.7-5.6-7.4-26.5-25.8-38.4C25.5,45,16.1,40.8,16.1,40.8S40.4,88.9,75,98.7z"/>
</g>
<g>
	<path fill="#FEC37D" d="M90.6,150H59.4c-8.3,0-15.4-5.9-16.9-14.1l-6.7-36.1h78.5l-6.7,36.1C106,144.1,98.9,150,90.6,150z"/>
	<path fill="#F9AE5D" d="M99.1,99.9l-6.7,36.1c-1.5,8.2-8.6,14.1-16.9,14.1h15.2c8.3,0,15.4-5.9,16.9-14.1l6.7-36.1L99.1,99.9
		L99.1,99.9z"/>
	<path fill="#F2A559" d="M115.6,108H34.4c-3.3,0-6-2.7-6-6c0-3.3,2.7-6,6-6h81.3c3.3,0,6,2.7,6,6C121.6,105.3,118.9,108,115.6,108z"/>
	<path fill="#EA8F3D" d="M115.6,96h-9.6V108h9.6c3.3,0,6-2.7,6-6C121.6,98.7,118.9,96,115.6,96z"/>
</g>
</svg>
